X:1830
T:Miss Hamilton
M:C
L:1/8
B:O'Neill's 1830
Z:"Transcribed by Bob Safranek, rjs@gsp.org"
K:G
B2 d2 cBAG|dc B/c/d ED2 D z|C/D/E DC B,DGD|DCB, B,CG, A,2 A, z|
BddcB BAGAF|GBAG EFEDEG|dBAG EF/G/ DC|B,2 A,2 G,4||
de.d.c cdcB ABAG|de.d.c cdcB ABAG|Bdgd edcB|cBAG A2 A z|
B/c/d cB AGAF|AG/F/G/A/ BG EFED/E/ G2|dBAG E/F/G DC|B,2 A,2 G,4|]
